X:981
T:Reel 981
M:4/4
K:Emin
L:1/8
dc|BE (3EDE B2cG|AD (3FED FAA2|BE (3EEE BAFA|| (3B^cd eg fdBA:||2Bdgf e2dc|Beef gfed|Bdd^c d2dc|Beef gfed|BABc dBAF|Beef gfed|Bdce dBAc|Bd^ce fee^c|dBAc BEFA|
